X:9
T:Mrs. Fraser of Lovat's Strathspey
C:Robert Petrie
S:Petrie's Collection of Strathspey Reels and Country Dances &c., 1790
Z:Steve Wyrick , 3/20/04
N:Petrie's First Collection, page 5
L:1/8
V:1 name = "violin"
V:2 name = "bass" clef=bass middle=d transpose=-24
M:C
R:Strathspey
K:Am
[V:1] A|E<A,E>D E<A,A,>C|B,G E/D/C/B,/ D<G,G,>B,|EA,TE>D E<A,A,>C|DE/F/ E/D/C/B,/ CA,A,:|
[V:2] z|[A2c2e2][A2c2e2][A2c2e2][A2c2e2]|[G2B2d2][G2B2d2] [G2B2d2][G2B2d2]|\
[V:2] [A2c2e2][A2c2e2][A2c2e2][A2c2e2]|B2 E2 A2 A:|
[V:1] B|A<ac<a Aac<A|G<gB<g G<gdB|
[V:2] z|[a2c'2][a2c'2][a2c'2][a2c'2]|[g2b2][g2b2][g2b2][g2b2]|\
[V:2] [a2c'2][a2c'2][a2c'2][a2c'2]|[^g2b2] e2 a2 A2|
[V:1] A<ac<a Aac<A|G<gB<g G<gd<B|A/B/c/A/ B/c/d/B/ c/d/e/c/ d/e/f/d/|eE e/d/c/B/ cAA|]
[V:2] [A2c2e2][A2c2e2][A2c2e2][A2c2e2]|[G2B2d2][G2B2d2] [G2B2d2][G2B2d2]|c2 e2 AcBd|e2 E2 A2 A|]
% The above code was written using Phil Taylor's BarFly abc reader/converter/player program.
% Other abc converters (e.g. abc2ps) may require everything after the word "bass" to be
% deleted in the V:2 header line for correct display of notes the bass clef, or require that
% the M: and K: fields be repeated directly under the V:1 header line to display the meter
% and key signature on both staffs.  Some abc MIDI players (e.g. abc2midi) will not play
% multiple-voiced abc code.  -SW
